src/svg/time.svg

<?xml version="1.0" encoding="UTF-8"?>
<svg width="56px" height="56px" viewBox="0 0 56 56" version="1.1" xmlns="http://www.w3.org/2000/svg" xmlns:xlink="http://www.w3.org/1999/xlink">
    <!-- Generator: Sketch 47.1 (45422) - http://www.bohemiancoding.com/sketch -->
    <title>time</title>
    <desc>Created with Sketch.</desc>
    <defs></defs>
    <g id="Icons" stroke="none" stroke-width="1" fill="none" fill-rule="evenodd">
        <g id="time" fill-rule="nonzero" fill="#BDC3C7">
            <path d="M27.99972,0 C12.5359956,0 0,12.5362436 0,27.9992533 C0,43.4622631 12.5359956,56 27.9995333,56 C43.4630711,56 56,43.4628231 56,27.9992533 C56,12.5356836 43.4632577,0 27.99972,0 Z M29.9332456,31.4231162 C29.9317522,31.4966633 29.9207387,31.5702105 29.9104718,31.6439443 C29.9031917,31.699198 29.8998317,31.7557584 29.8873248,31.8100787 C29.8748179,31.8666391 29.8533509,31.9224528 29.8350573,31.9790132 C29.8132169,32.0473336 29.7928699,32.1154674 29.7643094,32.1798679 C29.758896,32.1910679 29.7570293,32.2030147 29.7521759,32.2142148 C29.7099885,32.3041887 29.661081,32.3885626 29.6075068,32.4684565 C29.6041467,32.4733098 29.5996667,32.4781632 29.5963066,32.4830166 C29.5352656,32.5726172 29.4656378,32.6540044 29.3924632,32.7303515 C29.3721162,32.7512583 29.3513959,32.7701118 29.3299288,32.7898986 C29.2655278,32.8513123 29.1977666,32.9074994 29.1257121,32.9588331 C29.1034984,32.9748865 29.082218,32.9916866 29.0588843,33.00718 C28.9664828,33.0676605 28.8696012,33.1208608 28.7687995,33.1645411 C28.7469591,33.1742478 28.7241854,33.1800345 28.7019717,33.1888079 C28.6168503,33.2216615 28.5306088,33.248915 28.4415674,33.2696351 C28.4096468,33.2772885 28.3780996,33.2841952 28.3456191,33.2899819 C28.2313772,33.3108887 28.1156419,33.3252622 27.9984133,33.3252622 C27.9747062,33.3252622 27.9504392,33.3179821 27.9267321,33.3170488 C27.8143569,33.3127554 27.7031017,33.303982 27.5961399,33.2812085 C27.562726,33.2739285 27.5298722,33.2593684 27.4964583,33.2502217 C27.3967766,33.2231548 27.299335,33.1931013 27.2063734,33.1514743 C27.1957333,33.146061 27.1845331,33.1451276 27.1738929,33.1402743 L16.4375806,28.0761605 C15.4702578,27.6201308 15.0558509,26.4659631 15.5118852,25.49865 C15.9679195,24.5318969 17.1220987,24.1169341 18.0894215,24.5729638 L26.0632077,28.3332022 L26.0632077,11.6198908 C26.0632077,10.5504703 26.9302888,9.68339789 27.99972,9.68339789 C29.0691512,9.68339789 29.9362323,10.5504703 29.9362323,11.6198908 L29.9362323,31.3882093 L29.9366056,31.3882093 C29.9366056,31.3997827 29.9332456,31.4113561 29.9332456,31.4231162 Z" id="Shape"></path>
        </g>
    </g>
</svg>

<svg width="56" height="56" xmlns="http://www.w3.org/2000/svg"><path d="M28 0C12.536 0 0 12.536 0 28c0 15.462 12.536 28 28 28 15.463 0 28-12.537 28-28C56 12.535 43.463 0 28 0zm1.933 31.423c-.001.074-.012.147-.023.22-.007.056-.01.113-.023.167-.012.057-.034.112-.052.169-.022.068-.042.136-.07.2-.006.012-.008.024-.013.035a1.92 1.92 0 0 1-.144.254l-.012.015c-.06.09-.13.171-.204.247a1.854 1.854 0 0 1-.267.228c-.022.017-.043.034-.066.05-.093.06-.19.113-.29.157-.022.01-.045.015-.067.024a1.946 1.946 0 0 1-.356.101c-.115.02-.23.035-.348.035-.023 0-.048-.007-.071-.008a1.948 1.948 0 0 1-.33-.036c-.034-.007-.067-.022-.1-.03a1.965 1.965 0 0 1-.29-.1c-.011-.005-.022-.006-.033-.01l-10.736-5.065a1.937 1.937 0 0 1 1.651-3.503l7.974 3.76V11.62a1.937 1.937 0 0 1 3.873 0v19.768c0 .012-.003.023-.003.035z" fill-rule="nonzero" fill="#D8D8D8"/></svg>
